icons/cloud-offline-16.svg

<svg width="16" height="16" viewBox="0 0 16 16" fill="none" xmlns="http://www.w3.org/2000/svg">
<path d="M7.25 2C6.55918 2 5.89872 2.13095 5.2934 2.37121C4.9084 2.52402 4.72017 2.95999 4.87298 3.34499C5.02579 3.72999 5.46177 3.91821 5.84676 3.7654C6.27721 3.59456 6.75 3.5 7.25 3.5C8.90454 3.5 10.2844 4.5347 10.7914 5.99586C10.8962 6.29766 11.1806 6.5 11.5 6.5C13.1763 6.5 14.5 7.82373 14.5 9.5C14.5 10.239 14.2438 10.9044 13.8185 11.4197C13.5548 11.7392 13.6 12.2119 13.9194 12.4756C14.2389 12.7392 14.7116 12.694 14.9753 12.3746C15.6184 11.5954 16 10.5937 16 9.5C16 7.17026 14.2737 5.28123 12.0169 5.0287C11.1862 3.22888 9.37133 2 7.25 2Z" fill="#24292F"/>
<path fill-rule="evenodd" clip-rule="evenodd" d="M0.71967 1.71967C1.01256 1.42678 1.48744 1.42678 1.78033 1.71967L4.09113 4.03047C4.12026 4.05549 4.14704 4.08236 4.17143 4.11077L12.7024 12.6418C12.7141 12.6528 12.7255 12.6641 12.7366 12.6759L14.7803 14.7197C15.0732 15.0126 15.0732 15.4874 14.7803 15.7803C14.4874 16.0732 14.0126 16.0732 13.7197 15.7803L11.9204 13.981C11.7819 13.9936 11.6416 14 11.5 14H3.5C1.54755 14 0 12.4525 0 10.5C0 9.08932 0.80883 7.88564 2.00109 7.32926C1.97707 6.42188 2.21089 5.50184 2.64696 4.70762L0.71967 2.78033C0.426777 2.48744 0.426777 2.01256 0.71967 1.71967ZM3.5 7.25C3.5 6.74526 3.59641 6.2672 3.77131 5.83197L10.4393 12.5H3.5C2.37598 12.5 1.5 11.624 1.5 10.5C1.5 9.55056 2.12376 8.78393 2.98391 8.56406C3.35475 8.46927 3.59469 8.11036 3.54064 7.73144L3.54045 7.7301C3.51877 7.56608 3.5 7.38107 3.5 7.25Z" fill="#24292F"/>
</svg>

<svg xmlns="http://www.w3.org/2000/svg" width="16" height="16" viewBox="0 0 16 16"><path d="M7.25 2c-.69 0-1.351.13-1.957.371a.75.75 0 10.554 1.394c.43-.17.903-.265 1.403-.265a3.72 3.72 0 013.541 2.496.75.75 0 00.709.504c1.676 0 3 1.324 3 3a3 3 0 01-.681 1.92.75.75 0 001.156.955A4.496 4.496 0 0016 9.5a4.472 4.472 0 00-3.983-4.471A5.222 5.222 0 007.25 2z"/><path fill-rule="evenodd" d="M.72 1.72a.75.75 0 011.06 0l2.311 2.31c.03.025.056.052.08.08l8.531 8.532a.785.785 0 01.035.034l2.043 2.044a.75.75 0 11-1.06 1.06l-1.8-1.799a4.64 4.64 0 01-.42.019h-8A3.475 3.475 0 010 10.5c0-1.41.809-2.614 2.001-3.17a5.218 5.218 0 01.646-2.622L.72 2.78a.75.75 0 010-1.06zM3.5 7.25c0-.505.096-.983.271-1.418L10.44 12.5H3.5c-1.124 0-2-.876-2-2 0-.95.624-1.716 1.484-1.936a.75.75 0 00.557-.833A4.1 4.1 0 013.5 7.25z"/></svg>
